lib/assets/images/logo-icon-white.svg

<svg width="59" height="37" viewBox="0 0 59 37" fill="none" xmlns="http://www.w3.org/2000/svg">
<g clip-path="url(#clip0_2196_267)">
<path d="M18.0901 10.02C20.6401 4.8 26.0201 0 34.0901 0C34.4801 0 34.8701 0.01 35.2801 0.03C39.5801 0.42 47.5701 3.27 45.0901 7.11C44.2401 8.25 42.6001 8.47 41.4701 7.6C37.9601 4.47 31.0601 4.3 27.5601 6.78C22.5501 9.64 22.9801 13.8 21.0101 14.4C19.7101 14.7 18.4501 15.19 17.3201 15.89C16.0401 16.68 14.9401 17.69 14.0401 18.9C13.6601 19.53 13.0201 20.04 12.2301 19.95C11.0301 19.87 9.71011 19.77 7.91011 20.81C3.68011 23.37 4.43011 28.61 8.23011 30.76C9.24011 31.33 10.3901 31.61 11.5601 31.61H17.3801C20.7701 31.68 20.7101 36.6 17.3201 36.63H10.9301C10.3901 36.63 9.86011 36.58 9.33011 36.47C-3.64989 33.63 -2.95989 15.94 10.7601 14.88C12.7001 12.65 15.2701 10.97 18.0901 10.02ZM34.5801 16.24L23.1801 32.75C22.3901 33.9 22.6901 35.46 23.8501 36.24C25.0101 37.02 26.6001 36.72 27.4001 35.58L38.8001 19.07C41.5801 14.82 48.0701 14.98 51.2601 18.65C57.5701 25.62 48.6001 35.71 40.1201 29.97C37.4001 28.07 34.4401 32.12 37.1401 34.05C38.5901 35.07 41.4501 36.67 45.2101 36.67C58.5901 36.26 61.5901 21.96 55.0801 15.32C52.5501 12.39 48.7601 10.89 45.0001 10.89C40.9401 10.89 36.9301 12.64 34.5801 16.24Z" fill="white"/>
</g>
<defs>
<clipPath id="clip0_2196_267">
<rect width="58.41" height="36.69" fill="white"/>
</clipPath>
</defs>
</svg>

<?xml version="1.0" encoding="UTF-8"?>
<svg id="Layer_2" data-name="Layer 2" xmlns="http://www.w3.org/2000/svg" viewBox="0 0 58.41 36.69">
  <g id="Calque_1" data-name="Calque 1">
    <g id="logo_icon_white">
      <path id="icon" d="M18.09,10.02C20.64,4.8,26.02,0,34.09,0c.39,0,.78,.01,1.19,.03,4.3,.39,12.29,3.24,9.81,7.08-.85,1.14-2.49,1.36-3.62,.49-3.51-3.13-10.41-3.3-13.91-.82-5.01,2.86-4.58,7.02-6.55,7.62-1.3,.3-2.56,.79-3.69,1.49-1.28,.79-2.38,1.8-3.28,3.01-.38,.63-1.02,1.14-1.81,1.05-1.2-.08-2.52-.18-4.32,.86-4.23,2.56-3.48,7.8,.32,9.95,1.01,.57,2.16,.85,3.33,.85h5.82c3.39,.07,3.33,4.99-.06,5.02h-6.39c-.54,0-1.07-.05-1.6-.16-.01,0-.03,0-.05-.01-12.98-2.84-12.24-20.52,1.48-21.58,1.94-2.23,4.5-3.93,7.32-4.88m16.5,6.24l-11.4,16.51c-.79,1.15-.49,2.71,.67,3.49,1.16,.78,2.75,.48,3.55-.66l11.4-16.51c2.78-4.25,9.27-4.09,12.46-.42,6.31,6.97-2.66,17.06-11.14,11.32-2.72-1.9-5.68,2.15-2.98,4.08,1.45,1.02,4.31,2.62,8.07,2.62,13.38-.41,16.38-14.71,9.87-21.35-2.53-2.93-6.32-4.43-10.08-4.43-4.06,0-8.08,1.75-10.43,5.35" style="fill: #fff;"/>
    </g>
  </g>
</svg>
